X:717
T:Mrs. MacPherson Gibston
R:Reel
C:William Marshall
B:The Athole Collection
M:C|
L:1/8
K:C Minor
G|cded c2 Gc|BdGB FBDB,|1 cded c2 eg|dBfd c/c/c c:|2 gfed edcB|
GBFD C/C/C C||
|:G|cdeg cgeg|Bcde fbdB|1 cdef gcec|dBfd c/c/c c:|2 gfed edcB|GBFD C/C/C c||

